music-note-plus.svg

<svg fill="currentColor" viewBox="0 0 24 24"><path d="M17 9v3h-3v2h3v3h2v-3h3v-2h-3V9zM9 3v10.55c-.59-.34-1.27-.55-2-.55-2.21 0-4 1.79-4 4s1.79 4 4 4 4-1.79 4-4V7h4V3z"/></svg>

<svg  viewBox="0 0 24 24" fill="currentColor"><path  d="M17 9V12H14V14H17V17H19V14H22V12H19V9H17M9 3V13.55C8.41 13.21 7.73 13 7 13C4.79 13 3 14.79 3 17S4.79 21 7 21 11 19.21 11 17V7H15V3H9Z"/></svg>
